assets/icons/calendar/important-filled.svg

<?xml version="1.0" encoding="UTF-8" standalone="no"?>
<svg
   viewBox="0 0 24 24"
   height="24"
   id="svg7384"
   version="1.1"
   width="24"
   sodipodi:docname="important-filled.svg"
   inkscape:version="1.2 (1:1.2.1+202207142221+cd75a1ee6d)"
   xmlns:inkscape="http://www.inkscape.org/namespaces/inkscape"
   xmlns:sodipodi="http://sodipodi.sourceforge.net/DTD/sodipodi-0.dtd"
   xmlns="http://www.w3.org/2000/svg"
   xmlns:svg="http://www.w3.org/2000/svg"
   xmlns:rdf="http://www.w3.org/1999/02/22-rdf-syntax-ns#"
   xmlns:cc="http://creativecommons.org/ns#"
   xmlns:dc="http://purl.org/dc/elements/1.1/">
  <sodipodi:namedview
     id="namedview21"
     pagecolor="#ffffff"
     bordercolor="#666666"
     borderopacity="1.0"
     inkscape:pageshadow="2"
     inkscape:pageopacity="0.0"
     inkscape:pagecheckerboard="0"
     showgrid="true"
     inkscape:snap-page="true"
     inkscape:zoom="32"
     inkscape:cx="14.1875"
     inkscape:cy="10.578125"
     inkscape:window-width="1920"
     inkscape:window-height="1016"
     inkscape:window-x="0"
     inkscape:window-y="0"
     inkscape:window-maximized="1"
     inkscape:current-layer="svg7384"
     inkscape:showpageshadow="2"
     inkscape:deskcolor="#d1d1d1">
    <inkscape:grid
       type="xygrid"
       id="grid22"
       spacingx="1"
       spacingy="1"
       empspacing="5" />
    <inkscape:grid
       type="xygrid"
       id="grid839"
       dotted="true"
       spacingx="0.5"
       spacingy="0.5"
       empspacing="10" />
  </sodipodi:namedview>
  <metadata
     id="metadata20854">
    <rdf:RDF>
      <cc:Work
         rdf:about="">
        <dc:format>image/svg+xml</dc:format>
        <dc:type
           rdf:resource="http://purl.org/dc/dcmitype/StillImage" />
      </cc:Work>
    </rdf:RDF>
  </metadata>
  <defs
     id="defs7386">
    <linearGradient
       id="linearGradient5606"
       inkscape:swatch="solid">
      <stop
         id="stop5608"
         offset="0"
         style="stop-color:#000000;stop-opacity:1;" />
    </linearGradient>
    <linearGradient
       id="linearGradient4526"
       inkscape:swatch="solid">
      <stop
         id="stop4528"
         offset="0"
         style="stop-color:#ffffff;stop-opacity:1;" />
    </linearGradient>
    <linearGradient
       id="linearGradient3600-4"
       inkscape:swatch="gradient">
      <stop
         id="stop3602-7"
         offset="0"
         style="stop-color:#f4f4f4;stop-opacity:1" />
      <stop
         id="stop3604-6"
         offset="1"
         style="stop-color:#dbdbdb;stop-opacity:1" />
    </linearGradient>
  </defs>
  <path
     id="path301"
     style="color:#000000;fill:#808080;fill-opacity:1"
     d="m 8,2 v 1 h 1 v -1 z m 1,1 v 1 h -1 v -1 h -1 c -1.0416616,0 -1.9983078,0.1146097 -2.7578125,0.5703125 -0.7595047,0.4557028 -1.2421875,1.304693 -1.2421875,2.4296875 v 2.2832031 c 0.1800217,-0.1984083 0.3811699,-0.3714328 0.6054688,-0.515625 1.0288574,-0.6614083 2.3667594,-0.7675781 3.8945312,-0.7675781 h 9 c 1.538892,0 2.890471,0.1631271 3.914062,0.8476562 0.216051,0.1444837 0.411021,0.3137566 0.585938,0.5058594 v -2.3535156 c 0,-1.1249945 -0.482678,-1.9739847 -1.242188,-2.4296875 -0.759502,-0.4557028 -1.71615,-0.5703125 -2.757812,-0.5703125 h -1 v 1 h -1 v -1 z m 6,0 h 1 v -1 h -1 z m -7.5,5 c -1.4722163,0 -2.6343333,0.1438347 -3.3554688,0.6074219 -0.7211351,0.4635869 -1.1445312,1.2378228 -1.1445312,2.8925781 v 6.5 c 0,0.140625 0.0068,0.276433 0.021484,0.408203 0.014682,0.13177 0.037848,0.260355 0.066406,0.382813 0.028559,0.122457 0.063836,0.238875 0.1054688,0.351562 0.041633,0.112687 0.088676,0.22176 0.1425781,0.324219 0.053902,0.102458 0.1143205,0.199248 0.1796875,0.291015 0.065367,0.09177 0.1368625,0.177186 0.2128906,0.257813 0.076029,0.08063 0.1563024,0.155585 0.2421875,0.224609 0.085886,0.06902 0.1765463,0.132491 0.2714844,0.189454 0.7595047,0.4557 1.7161509,0.570312 2.7578125,0.570312 h 6.2675776 a 5.5,5.5 0 0 1 -1.267578,-3.5 5.5,5.5 0 0 1 5.499999,-5.5 5.5,5.5 0 0 1 3.5,1.257812 v -1.761718 c 0.01328,-1.5471587 -0.409099,-2.3278448 -1.142578,-2.8183596 -0.733479,-0.4905148 -1.896325,-0.6777344 -3.357422,-0.6777344 z" />
  <path
     id="path981"
     style="fill:#808080;fill-opacity:1;fill-rule:evenodd;stroke-width:0.5;stroke-linecap:round;stroke-linejoin:round"
     d="M 17.5 13 C 15.014723 13 13 15.014723 13 17.5 C 13 19.985277 15.014723 22 17.5 22 C 19.985277 22 22 19.985277 22 17.5 C 22 15.014723 19.985277 13 17.5 13 z M 17 15 L 18 15 L 18 17 L 17.800781 18 L 17.199219 18 L 17 17 L 17 15 z M 17.5 19 A 0.5 0.5 0 0 1 18 19.5 A 0.5 0.5 0 0 1 17.5 20 A 0.5 0.5 0 0 1 17 19.5 A 0.5 0.5 0 0 1 17.5 19 z " />
</svg>

<svg height="24" width="24" xmlns="http://www.w3.org/2000/svg"><path style="color:#000;fill:gray;fill-opacity:1" d="M8 2v1h1V2zm1 1v1H8V3H7c-1.042 0-1.998.115-2.758.57C3.482 4.026 3 4.875 3 6v2.283c.18-.198.381-.371.605-.515C4.635 7.106 5.972 7 7.5 7h9c1.539 0 2.89.163 3.914.848.216.144.411.313.586.506V6c0-1.125-.483-1.974-1.242-2.43C18.998 3.115 18.042 3 17 3h-1v1h-1V3zm6 0h1V2h-1zM7.5 8c-1.472 0-2.634.144-3.355.607C3.423 9.071 3 9.845 3 11.5V18a3.299 3.299 0 0 0 .193 1.143 2.54 2.54 0 0 0 .535.873 2.394 2.394 0 0 0 .514.414c.76.455 1.716.57 2.758.57h6.268A5.5 5.5 0 0 1 12 17.5a5.5 5.5 0 0 1 5.5-5.5 5.5 5.5 0 0 1 3.5 1.258v-1.762c.013-1.547-.41-2.328-1.143-2.818C19.124 8.188 17.961 8 16.5 8z"/><path style="fill:gray;fill-opacity:1;stroke-width:.5;stroke-linecap:round;stroke-linejoin:round" d="M17.5 13a4.5 4.5 0 1 0 0 9 4.5 4.5 0 0 0 0-9zm-.5 2h1v2l-.2 1h-.6l-.2-1v-2zm.5 4a.5.5 0 0 1 .5.5.5.5 0 0 1-.5.5.5.5 0 0 1-.5-.5.5.5 0 0 1 .5-.5z"/></svg>
